X: 43
T: Maid of the Mill
N: Lester Bailey's version
S: https://lesters-tune-a-day.blogspot.com/2019/05/tune-513-maid-of-mill-illmington.html
Z: 2019 John Chambers <jc:trillian.mit.edu>
M: 6/8
L: 1/8
K: G
D |\
D2G GFG | ABc d2G | E2E FED | G3 G2 D |\
D2G GFG | ABc d2G | E2E FED | G3 G2 |]
|: B/c/ |\
d2d dcB | cBc c2B | ABc dBA | G3 F2D |\
D2G GFG | ABc d2G | E2E FED | G3 G2 :|


